packages/calcite-ui-icons/icons/multi-timeline-16.svg

<?xml version="1.0" encoding="UTF-8"?><svg id="icons" xmlns="http://www.w3.org/2000/svg" viewBox="0 0 16 16"><defs><style>.cls-1{fill:none;}</style></defs><path d="M13,4h-1v-2h1v.99994h1v1h-1v.00006ZM9.04999,3.5C9.04999,1.59412,10.5946.04999,12.5.04999s3.45001,1.54413,3.45001,3.45001c0,1.90491-1.54462,3.45001-3.45001,3.45001s-3.45001-1.5451-3.45001-3.45001ZM10,3.5c0,1.37909,1.12134,2.50043,2.5,2.50043s2.5-1.12134,2.5-2.50043-1.12134-2.50049-2.5-2.50049-2.5,1.1214-2.5,2.50049ZM7,8h8v1h-4v1.0921c.58075.20709.98999.7569.98999,1.4079s-.40924,1.20081-.98999,1.4079v1.0921h4v1H2.9079c-.20709.58075-.7569,1-1.4079,1-.82715,0-1.5-.67285-1.5-1.5s.67285-1.5,1.5-1.5c.651,0,1.20081.41925,1.4079,1h7.0921v-1.0921c-.58075-.20709-.98999-.7569-.98999-1.4079s.40924-1.20081.98999-1.4079v-1.0921H2.9079c-.20709.58075-.7569,1-1.4079,1-.82715,0-1.5-.67285-1.5-1.5s.67285-1.5,1.5-1.5c.651,0,1.20081.41925,1.4079,1h3.0921v-1.0921c-.58075-.20709-.98999-.7569-.98999-1.4079s.40924-1.20081.98999-1.4079v-1.0921h-3.0921c-.20709.58075-.7569,1-1.4079,1-.82715,0-1.5-.67285-1.5-1.5s.67285-1.5,1.5-1.5c.651,0,1.20081.41925,1.4079,1h5.0921v1h-1v1.0921c.58075.20709,1,.7569,1,1.4079s-.41925,1.20081-1,1.4079v1.0921ZM2,2h-1v1h1v-1ZM2,8h-1v1h1v-1ZM2,14h-1v1h1v-1Z"/><rect class="cls-1" width="16" height="16"/></svg>

<svg xmlns="http://www.w3.org/2000/svg" viewBox="0 0 16 16"><path d="M13 4h-1V2h1v1h1v1h-1zm-3.95-.5a3.45 3.45 0 1 1 6.9 0 3.45 3.45 0 0 1-6.9 0zm.95 0C10 4.88 11.121 6 12.5 6S15 4.88 15 3.5 13.879 1 12.5 1 10 2.12 10 3.5zM7 8h8v1h-4v1.092c.58.207.99.757.99 1.408s-.41 1.2-.99 1.408V14h4v1H2.908c-.207.58-.757 1-1.408 1-.827 0-1.5-.673-1.5-1.5S.673 13 1.5 13c.651 0 1.2.42 1.408 1H10v-1.092c-.58-.207-.99-.757-.99-1.408s.41-1.2.99-1.408V9H2.908c-.207.58-.757 1-1.408 1C.673 10 0 9.327 0 8.5S.673 7 1.5 7c.651 0 1.2.42 1.408 1H6V6.908C5.42 6.7 5.01 6.15 5.01 5.5s.41-1.2.99-1.408V3H2.908A1.5 1.5 0 0 1 1.5 4C.673 4 0 3.327 0 2.5S.673 1 1.5 1c.651 0 1.2.42 1.408 1H8v1H7v1.092C7.58 4.3 8 4.85 8 5.5s-.42 1.2-1 1.408V8zM2 2H1v1h1V2zm0 6H1v1h1V8zm0 6H1v1h1v-1z"/><path fill="none" d="M0 0h16v16H0z"/></svg>
